src/view/frontend/web/svg/heroicons/outline/color-swatch.svg

<svg  viewBox="0 0 24 24" fill="none" stroke="currentColor" xmlns="http://www.w3.org/2000/svg">
<path d="M7 21C4.79086 21 3 19.2091 3 17V5C3 3.89543 3.89543 3 5 3H9C10.1046 3 11 3.89543 11 5V17C11 19.2091 9.20914 21 7 21ZM7 21H19C20.1046 21 21 20.1046 21 19V15C21 13.8954 20.1046 13 19 13H16.6569M11 7.34312L12.6569 5.68629C13.4379 4.90524 14.7042 4.90524 15.4853 5.68629L18.3137 8.51472C19.0948 9.29577 19.0948 10.5621 18.3137 11.3431L9.82843 19.8284M7 17H7.01"  stroke-width="2" stroke-linecap="round" stroke-linejoin="round"/>
</svg>

<svg xmlns="http://www.w3.org/2000/svg" fill="none" viewBox="0 0 24 24" stroke="currentColor">
  <path stroke-linecap="round" stroke-linejoin="round" stroke-width="2" d="M7 21a4 4 0 01-4-4V5a2 2 0 012-2h4a2 2 0 012 2v12a4 4 0 01-4 4zm0 0h12a2 2 0 002-2v-4a2 2 0 00-2-2h-2.343M11 7.343l1.657-1.657a2 2 0 012.828 0l2.829 2.829a2 2 0 010 2.828l-8.486 8.485M7 17h.01"/>
</svg>
